X:64
T:High Road to Linton, The
R:Reel
M:4/4
K:A
"A" ceef      a2ae |     f2fe      a2ae |     ceef      a2ae | "E7" faec"A" B2A2 :|
"A" cee=g "D" fddf | "A" ecce "E7" fBB2 | "A" cee=g "D" fddf | "E7" ecac"A" B2A2 :|
"A" a2a2      efa2 |     efae      faef |     a2a2      efae | "E7" faec"A" B2A2 :|
"A" c2ec  "D" defd | "A" c2ec "E7" BcdB | "A" c2ec  "D" defg |1 "E7" afec "A" B2A2 :|2 "E7" afec "A" B2 :|
